.local/share/icons/Gruvbox-Plus-Dark/mimetypes/scalable/application-rtf.svg

<svg width="256" height="256" viewBox="0 0 256 256" fill="none" xmlns="http://www.w3.org/2000/svg">
<g clip-path="url(#clip0)">
<g opacity="0.4" filter="url(#filter0_f)">
<path d="M55.0839 15.5636H155.608L216.009 75.7129L216.011 224.609C216.011 233.52 208.749 240.737 199.838 240.737H55.0838C46.1734 240.737 39 233.564 39 224.654V31.6474C39 22.737 46.1734 15.5636 55.0838 15.5636H55.0839Z" fill="#282828"/>
</g>
<path d="M55.0839 15H155.608L216.009 75.1493L216.011 224.045C216.011 232.956 208.749 240.174 199.838 240.174H55.0838C46.1734 240.174 39 233 39 224.09V31.0838C39 22.1734 46.1734 15 55.0838 15H55.0839Z" fill="#ebdbb2"/>
<path fill-rule="evenodd" clip-rule="evenodd" d="M155.609 22.9787H55.0839C50.58 22.9787 46.9787 26.5799 46.9787 31.0838V224.09C46.9787 228.594 50.5799 232.195 55.0838 232.195H199.838C204.371 232.195 208.032 228.521 208.032 224.046V75.1493L155.609 22.9787ZM155.608 15H55.0839C46.1735 15 39 22.1734 39 31.0838V224.09C39 233 46.1734 240.174 55.0838 240.174H199.838C208.749 240.174 216.011 232.956 216.011 224.045L216.009 75.1493L155.608 15Z" fill="url(#paint0_linear)"/>
<path d="M161.013 189.062H189.625V197.237H161.013V189.062ZM161.013 168.625H189.625V176.8H161.013V168.625ZM161.013 148.187H189.625V156.363H161.013V148.187ZM161.013 127.75H189.625V135.925H161.013V127.75ZM161.013 107.313H189.625V115.488H161.013V107.313ZM67 86.875H189.625V95.05H67V86.875ZM67 66.4375H144.663V74.6125H67V66.4375ZM67 46H144.663V54.175H67V46Z" fill="#665c54"/>
<path d="M152.837 209.5H67V107.242H152.837V209.5Z" fill="url(#paint1_radial)"/>
<path d="M152.837 209.5H67V107.242H152.837V209.5Z" fill="url(#paint2_radial)"/>
<path opacity="0.25" d="M155.608 17V61.2306C155.608 70.141 162.867 77.1605 171.777 77.1605L216.009 77.1493V75.1493L155.608 17Z" fill="#282828"/>
<path d="M155.608 15V59.2306C155.608 68.141 162.867 75.1605 171.777 75.1605L216.009 75.1493L155.608 15Z" fill="url(#paint3_linear)"/>
</g>
<defs>
<filter id="filter0_f" x="23.8778" y="0.441412" width="207.255" height="255.418" filterUnits="userSpaceOnUse" color-interpolation-filters="sRGB">
<feFlood flood-opacity="0" result="BackgroundImageFix"/>
<feBlend mode="normal" in="SourceGraphic" in2="BackgroundImageFix" result="shape"/>
<feGaussianBlur stdDeviation="7.5611" result="effect1_foregroundBlur"/>
</filter>
<linearGradient id="paint0_linear" x1="39" y1="15" x2="39" y2="240.174" gradientUnits="userSpaceOnUse">
<stop offset="1e-07" stop-color="#458588"/>
<stop offset="1" stop-color="#076678"/>
</linearGradient>
<radialGradient id="paint1_radial" cx="0" cy="0" r="1" gradientUnits="userSpaceOnUse" gradientTransform="translate(128.312 131.837) rotate(60) scale(181.539 110.901)">
<stop stop-color="#8ec07c"/>
<stop offset="1" stop-color="#8ec07c" stop-opacity="0.01"/>
</radialGradient>
<radialGradient id="paint2_radial" cx="0" cy="0" r="1" gradientUnits="userSpaceOnUse" gradientTransform="translate(95.6124 213.587) rotate(-90) scale(109.257 111.462)">
<stop stop-color="#458588"/>
<stop offset="1" stop-color="#83a598" stop-opacity="0"/>
</radialGradient>
<linearGradient id="paint3_linear" x1="155.608" y1="15" x2="155.608" y2="75.1605" gradientUnits="userSpaceOnUse">
<stop offset="1e-07" stop-color="#458588"/>
<stop offset="1" stop-color="#076678"/>
</linearGradient>
<clipPath id="clip0">
<rect width="256" height="256" fill="#ebdbb2"/>
</clipPath>
</defs>
</svg>

<svg width="256" height="256" fill="none" version="1.1" viewBox="0 0 256 256" xmlns="http://www.w3.org/2000/svg">
  <path d="m55.08 15h100.5l60.4 60.15 2e-3 148.9c0 8.911-7.262 16.13-16.17 16.13h-144.8c-8.91 0-16.08-7.174-16.08-16.08v-193c0-8.91 7.173-16.08 16.08-16.08h1e-4z" fill="#ebdbb2"/>
  <path d="m155.6 22.98h-100.5c-4.504 0-8.105 3.601-8.105 8.105v193c0 4.504 3.601 8.105 8.105 8.105h144.8c4.533 0 8.194-3.674 8.194-8.149v-148.9l-52.42-52.17zm-1e-3 -7.979h-100.5c-8.91 0-16.08 7.173-16.08 16.08v193c0 8.91 7.173 16.08 16.08 16.08h144.8c8.911 0 16.17-7.218 16.17-16.13l-2e-3 -148.9-60.4-60.15z" clip-rule="evenodd" fill="url(#paint0_linear)" fill-rule="evenodd"/>
  <path d="m161 189.1h28.61v8.175h-28.61v-8.175zm0-20.44h28.61v8.175h-28.61v-8.175zm0-20.44h28.61v8.176h-28.61v-8.176zm0-20.44h28.61v8.175h-28.61v-8.175zm0-20.44h28.61v8.175h-28.61v-8.175zm-94.01-20.44h122.6v8.175h-122.6v-8.175zm0-20.44h77.66v8.175h-77.66v-8.175zm0-20.44h77.66v8.175h-77.66v-8.175z" fill="#665c54"/>
  <path d="m152.8 209.5h-85.84v-102.3h85.84v102.3z" fill="url(#paint1_radial)"/>
  <path d="m152.8 209.5h-85.84v-102.3h85.84v102.3z" fill="url(#paint2_radial)"/>
  <path d="m155.6 17v44.23c0 8.91 7.259 15.93 16.17 15.93l44.23-0.0112v-2l-60.4-58.15z" fill="#282828" opacity=".25"/>
  <path d="m155.6 15v44.23c0 8.91 7.259 15.93 16.17 15.93l44.23-0.0112-60.4-60.15z" fill="url(#paint3_linear)"/>
  <defs>
    <linearGradient id="paint0_linear" x1="39" x2="39" y1="15" y2="240.2" gradientUnits="userSpaceOnUse">
      <stop stop-color="#458588" offset="1e-7"/>
      <stop stop-color="#076678" offset="1"/>
    </linearGradient>
    <radialGradient id="paint1_radial" cx="0" cy="0" r="1" gradientTransform="translate(128.3 131.8) rotate(60) scale(181.5 110.9)" gradientUnits="userSpaceOnUse">
      <stop stop-color="#8ec07c" offset="0"/>
      <stop stop-color="#8ec07c" stop-opacity=".01" offset="1"/>
    </radialGradient>
    <radialGradient id="paint2_radial" cx="0" cy="0" r="1" gradientTransform="translate(95.61 213.6) rotate(-90) scale(109.3 111.5)" gradientUnits="userSpaceOnUse">
      <stop stop-color="#458588" offset="0"/>
      <stop stop-color="#83a598" stop-opacity="0" offset="1"/>
    </radialGradient>
    <linearGradient id="paint3_linear" x1="155.6" x2="155.6" y1="15" y2="75.16" gradientUnits="userSpaceOnUse">
      <stop stop-color="#458588" offset="1e-7"/>
      <stop stop-color="#076678" offset="1"/>
    </linearGradient>
  </defs>
</svg>
